website/src/images/boatPropeller.svg

<svg title="boats" width="517" height="524" viewBox="0 0 517 524" fill="none" xmlns="http://www.w3.org/2000/svg">
<path fill-rule="evenodd" clip-rule="evenodd" d="M252.123 199.146C244.528 186.295 236.339 174.761 229.876 161.349C220.895 142.712 215.247 120.449 217.569 99.089C220.081 75.9814 231.92 53.9298 248.321 37.7182C268.491 17.7814 295.561 6.67684 323.27 2.54683C356.069 -2.34208 389.764 2.54207 420.41 15.5268C452.526 29.1342 481.294 51.638 499.511 81.0335C509.746 97.5494 516.651 116.241 516.712 136.114C516.757 150.525 513.204 165.556 503.732 175.892C495.504 184.87 482.807 190.304 470.655 190.965C455.031 191.814 440.307 184.774 425.015 180.916C409.519 177.006 393.44 176.364 377.702 178.823C362.377 181.216 347.373 186.55 334.575 195.152C327.488 199.915 321.078 205.68 315.433 212.05C324.05 221.598 329.138 235.279 328.855 248.136C343.738 246.984 357.701 244.718 372.588 244.83C393.275 244.984 415.748 249.728 433.897 261.229C453.531 273.67 468.106 294.017 475.427 315.886C484.43 342.779 482.464 371.972 473.957 398.663C463.886 430.259 444.649 458.35 419.484 480.134C393.112 502.962 360.231 518.864 325.816 522.257C306.479 524.163 286.658 522.121 268.793 513.415C255.838 507.103 243.912 497.288 238.811 484.23C234.379 472.886 235.098 459.094 239.863 447.895C245.988 433.497 258.798 423.384 269.002 411.359C279.343 399.173 287.007 385.024 291.738 369.814C296.345 355.003 298.172 339.185 296.092 323.905C294.941 315.444 292.593 307.149 289.363 299.275C274.825 303.532 257.058 300.503 244.752 291.669C237.386 304.653 231.458 317.496 223.041 329.776C211.346 346.842 194.848 362.821 175.165 371.438C153.873 380.759 128.854 381.466 106.63 375.308C79.2991 367.736 56.195 349.783 38.8225 327.806C18.2579 301.79 5.72481 270.135 1.73479 237.091C-2.44661 202.463 2.75426 166.311 19.1841 135.88C28.4153 118.783 41.1911 103.492 58.3978 93.5471C70.8743 86.3364 85.6803 81.9367 99.3587 85.0085C111.242 87.6771 122.274 95.9849 128.895 106.197C137.408 119.325 138.63 135.6 142.894 150.783C147.215 166.17 154.66 180.436 164.626 192.863C174.329 204.964 186.422 215.322 200.253 222.142C207.911 225.918 216.102 228.609 224.436 230.335C228.723 217.067 239.458 204.976 252.123 199.146ZM264.026 225.81C269.965 222.748 277.288 222.372 282.674 224.253C288.152 225.845 293.899 230.4 296.961 236.338C300.023 242.277 300.399 249.6 298.518 254.987C296.926 260.465 292.371 266.212 286.433 269.274C280.494 272.335 273.17 272.711 267.784 270.831C262.306 269.238 256.559 264.684 253.497 258.745C250.436 252.806 250.059 245.483 251.94 240.097C253.533 234.619 258.087 228.872 264.026 225.81ZM480.845 107.822L482.944 112.851C476.797 105.521 470.589 99.9392 463.988 94.8173C437.54 74.2954 404.788 61.1532 371.872 55.8775C391.204 65.6501 409.197 78.6299 424.211 94.3986C437.102 107.938 447.798 123.533 447.813 130.535C444.865 127.951 432.206 117.168 418.449 107.525C395.667 91.5537 369.875 78.7044 342.628 74.8338C336.719 73.9942 330.741 73.577 324.772 73.4602C333.371 77.0996 341.7 81.3524 349.771 86.097C362.658 93.6724 374.887 102.502 385.484 113.019C393.586 121.06 400.734 130.088 403.374 138.098C391.934 129.941 376.008 121.602 359.386 114.942C338.154 106.435 315.788 100.669 293.18 97.635C304.022 102.187 314.458 107.766 324.223 114.393C340.822 125.658 355.481 139.95 358.32 149.657C355.186 147.405 341.852 140.262 327.794 134.996C310.908 128.671 292.978 125.053 275.049 124.008C285.553 127.718 295.634 132.848 304.718 139.391C315.605 147.235 325.06 157.108 327.845 165.136C321.642 161.623 314.993 158.83 308.069 156.994C297.892 154.295 287.121 153.662 276.708 154.831C280.379 158.393 286.847 166.006 293.572 179.314C286.834 177.498 279.748 176.687 272.774 176.934L270.077 172.612L266.342 166.644L264.556 163.75L262.595 160.501L258.148 152.613L256.595 149.569L254.752 145.638C253.452 142.719 252.279 139.745 251.241 136.723C250.206 133.709 249.306 130.648 248.563 127.548C247.841 124.537 247.265 121.491 246.865 118.42C246.482 115.49 246.258 112.537 246.229 109.582C246.201 106.77 246.349 103.954 246.704 101.165C247.085 98.171 247.704 95.2069 248.519 92.3004L249.939 87.8374L251.681 83.4215C252.968 80.4487 254.449 77.5612 256.1 74.7749C257.778 71.9442 259.631 69.218 261.64 66.612C263.637 64.0225 265.788 61.5518 268.082 59.2233C270.811 56.455 273.743 53.8877 276.836 51.534C280.051 49.0875 283.441 46.872 286.955 44.8786C290.58 42.8223 294.338 41.0025 298.187 39.4038C302.149 37.7586 306.206 36.3477 310.326 35.1521C314.526 33.933 318.791 32.9377 323.094 32.1502L329.997 31.0674L337.826 30.2627C343.07 29.871 348.335 29.7707 353.59 29.9519C359.104 30.1421 364.607 30.6422 370.067 31.4381C375.338 32.2064 380.568 33.2506 385.733 34.5562C390.908 35.8648 396.017 37.4359 401.035 39.2551C407.625 41.6436 414.059 44.4596 420.283 47.6812C425.28 50.2674 430.142 53.1149 434.833 56.2214C439.467 59.2902 443.934 62.6117 448.194 66.1826C452.376 69.6887 456.358 73.4353 460.089 77.4176C463.744 81.3181 467.159 85.4446 470.281 89.7836L474.687 96.3699L476.942 100.173C478.351 102.665 479.66 105.216 480.845 107.822ZM309.999 493.693L304.56 493.36C313.849 491.074 321.596 487.962 329.103 484.295C359.182 469.603 385.417 445.998 404.662 418.779C387.368 431.823 367.786 442.251 347.014 448.776C329.178 454.379 310.465 457.104 304.174 454.032C307.793 452.525 323.051 445.915 337.772 437.819C362.15 424.41 385.054 406.923 400.539 384.174C403.898 379.239 406.907 374.057 409.643 368.751C402.586 374.865 395.097 380.466 387.28 385.62C374.8 393.847 361.484 400.932 347.372 405.807C336.583 409.535 325.329 411.971 316.975 410.81C329.339 404.137 343.846 393.518 357.151 381.534C374.146 366.227 389.181 348.692 401.871 329.738C393.006 337.463 383.397 344.371 373.145 350.214C355.716 360.147 336.425 367.004 326.461 365.274C329.864 363.454 342.153 354.634 353.077 344.337C366.199 331.969 377.35 317.469 386.192 301.837C378.231 309.63 369.182 316.418 359.304 321.687C347.465 328.001 334.435 332.135 326.001 331.096C331.889 327.077 337.327 322.34 342.027 316.935C348.936 308.99 354.252 299.601 357.794 289.738C352.978 291.464 343.293 293.914 328.383 294.083C332.984 288.836 336.836 282.833 339.688 276.464L344.757 275.948L351.76 275.227L355.145 274.9L358.926 274.572L367.966 274.057L371.383 274.005L375.724 274.084C378.917 274.204 382.104 274.462 385.273 274.862C388.435 275.262 391.58 275.804 394.689 276.503C397.71 277.182 400.699 278.009 403.631 279.003C406.431 279.951 409.179 281.052 411.845 282.328C414.382 283.543 416.843 284.917 419.19 286.465C421.71 288.127 424.097 289.989 426.347 292.002L429.727 295.244L432.923 298.754C435.024 301.22 436.963 303.822 438.736 306.533C440.537 309.286 442.167 312.151 443.621 315.104C445.065 318.037 446.334 321.057 447.413 324.143C448.695 327.812 449.707 331.576 450.456 335.39C451.234 339.354 451.729 343.374 451.969 347.407C452.216 351.567 452.193 355.743 451.931 359.902C451.662 364.183 451.139 368.447 450.397 372.672C449.639 376.98 448.652 381.246 447.463 385.455L445.391 392.129L442.662 399.511C440.702 404.391 438.471 409.161 435.992 413.798C433.391 418.663 430.516 423.382 427.395 427.932C424.381 432.325 421.138 436.559 417.69 440.619C414.234 444.688 410.572 448.58 406.726 452.283C401.678 457.145 396.314 461.679 390.678 465.845C386.154 469.19 381.455 472.299 376.599 475.14C371.801 477.947 366.851 480.493 361.768 482.742C356.777 484.95 351.659 486.872 346.439 488.466C341.327 490.027 336.118 491.274 330.847 492.163L322.993 493.215L318.586 493.562C315.727 493.728 312.861 493.778 309.999 493.693ZM51.7098 138.738L55.0264 134.415C51.728 143.394 49.9765 151.557 48.8193 159.831C44.1824 192.985 49.0838 227.933 60.89 259.108C59.7447 237.476 62.0482 215.411 68.2529 194.541C73.5804 176.621 81.7839 159.582 87.8489 156.084C87.0745 159.927 84.0231 176.273 82.5051 193.005C79.9912 220.714 81.6831 249.48 91.8861 275.038C94.0991 280.582 96.7125 285.975 99.5817 291.21C98.4588 281.94 98.0022 272.6 98.1005 263.238C98.2575 248.29 99.8292 233.289 103.677 218.863C106.619 207.834 110.892 197.141 116.526 190.864C115.145 204.846 115.838 222.811 118.334 240.542C121.523 263.192 127.653 285.461 136.273 306.58C134.825 294.91 134.47 283.082 135.358 271.315C136.867 251.311 141.969 231.483 148.975 224.189C148.581 228.029 149.022 243.149 151.451 257.963C154.369 275.757 160.155 293.109 168.171 309.18C166.161 298.223 165.593 286.926 166.748 275.79C168.132 262.444 171.991 249.329 177.568 242.918C177.608 250.047 178.495 257.204 180.348 264.123C183.072 274.294 187.884 283.951 194.08 292.401C195.343 287.444 198.726 278.045 206.923 265.588C208.7 272.337 211.524 278.887 215.21 284.812L212.803 289.303L209.485 295.513L207.864 298.502L206.022 301.82L201.393 309.603L199.526 312.465L197.034 316.02C195.149 318.599 193.154 321.098 191.049 323.502C188.95 325.9 186.742 328.203 184.424 330.391C182.172 332.516 179.816 334.531 177.352 336.407C175 338.197 172.551 339.861 170.002 341.357C167.577 342.781 165.061 344.053 162.465 345.134C159.679 346.293 156.8 347.232 153.873 347.971L149.296 348.961L144.598 349.648C141.38 350.011 138.138 350.164 134.899 350.118C131.609 350.072 128.323 349.822 125.062 349.376C121.823 348.933 118.609 348.297 115.447 347.465C111.688 346.477 108.002 345.212 104.422 343.7C100.699 342.129 97.0907 340.291 93.6126 338.235C90.0248 336.114 86.5761 333.761 83.2739 331.218C79.8754 328.601 76.6322 325.783 73.5449 322.806C70.3969 319.769 67.4111 316.565 64.5867 313.225L60.2117 307.776L55.6174 301.387C52.6679 297.033 49.9604 292.516 47.5022 287.868C44.9228 282.991 42.6177 277.969 40.5908 272.837C38.6339 267.883 36.9363 262.827 35.4986 257.698C34.0578 252.558 32.878 247.344 31.9581 242.086C30.7504 235.182 29.9906 228.2 29.687 221.198C29.4432 215.577 29.4935 209.943 29.8532 204.328C30.2085 198.781 30.866 193.253 31.8433 187.781C32.8029 182.409 34.071 177.091 35.6679 171.872C37.2319 166.761 39.1114 161.745 41.3213 156.878L44.8409 149.778L47.0173 145.93C48.4777 143.467 50.0385 141.063 51.7098 138.738Z" fill="currentcolor" stroke="currentcolor" stroke-width="0.48" stroke-miterlimit="0" stroke-linecap="round"/>
</svg>

<svg xmlns="http://www.w3.org/2000/svg" fill="none" viewBox="0 0 517 524" title="boats" role="img">
  <path fill="currentcolor" fill-rule="evenodd" d="M252.123 199.146c-7.595-12.851-15.784-24.385-22.247-37.797-8.981-18.637-14.629-40.9-12.307-62.26 2.512-23.108 14.351-45.16 30.752-61.37 20.17-19.938 47.24-31.042 74.949-35.172 32.799-4.89 66.494-.005 97.14 12.98 32.116 13.607 60.884 36.111 79.101 65.507 10.235 16.515 17.14 35.207 17.201 55.08.045 14.411-3.508 29.442-12.98 39.778-8.228 8.978-20.925 14.412-33.077 15.073-15.624.849-30.348-6.191-45.64-10.049-15.496-3.91-31.575-4.552-47.313-2.093-15.325 2.393-30.329 7.727-43.127 16.329-7.087 4.763-13.497 10.528-19.142 16.898 8.617 9.548 13.705 23.229 13.422 36.086 14.883-1.152 28.846-3.418 43.733-3.306 20.687.154 43.16 4.898 61.309 16.399 19.634 12.441 34.209 32.788 41.53 54.657 9.003 26.893 7.037 56.086-1.47 82.777-10.071 31.596-29.308 59.687-54.473 81.471-26.372 22.828-59.253 38.73-93.668 42.123-19.337 1.906-39.158-.136-57.023-8.842-12.955-6.312-24.881-16.127-29.982-29.185-4.432-11.344-3.713-25.136 1.052-36.335 6.125-14.398 18.935-24.511 29.139-36.536 10.341-12.186 18.005-26.335 22.736-41.545 4.607-14.811 6.434-30.629 4.354-45.909-1.151-8.461-3.499-16.756-6.729-24.63-14.538 4.257-32.305 1.228-44.611-7.606-7.366 12.984-13.294 25.827-21.711 38.107-11.695 17.066-28.193 33.045-47.876 41.662-21.292 9.321-46.311 10.028-68.535 3.87-27.33-7.572-50.435-25.525-67.808-47.502-20.564-26.016-33.097-57.671-37.087-90.715-4.182-34.628 1.02-70.78 17.45-101.211 9.23-17.097 22.006-32.388 39.213-42.333 12.476-7.21 27.282-11.61 40.96-8.538 11.884 2.668 22.916 10.976 29.537 21.188 8.513 13.128 9.735 29.403 13.999 44.586 4.321 15.387 11.766 29.653 21.732 42.08 9.703 12.101 21.796 22.459 35.627 29.279 7.658 3.776 15.849 6.467 24.183 8.193 4.287-13.268 15.022-25.359 27.687-31.189Zm11.903 26.664c5.939-3.062 13.262-3.438 18.648-1.557 5.478 1.592 11.225 6.147 14.287 12.085 3.062 5.939 3.438 13.262 1.557 18.649-1.592 5.478-6.147 11.225-12.085 14.287-5.939 3.061-13.263 3.437-18.649 1.557-5.478-1.593-11.225-6.147-14.287-12.086-3.061-5.939-3.438-13.262-1.557-18.648 1.593-5.478 6.147-11.225 12.086-14.287Zm216.819-117.988 2.099 5.029c-6.147-7.33-12.355-12.912-18.956-18.034-26.448-20.522-59.2-33.664-92.116-38.94 19.332 9.773 37.325 22.753 52.339 38.522 12.891 13.539 23.587 29.134 23.602 36.136-2.948-2.584-15.607-13.367-29.364-23.01-22.782-15.971-48.574-28.82-75.821-32.691-5.909-.84-11.887-1.257-17.856-1.374 8.599 3.64 16.928 7.892 24.999 12.637 12.887 7.575 25.116 16.405 35.713 26.922 8.102 8.041 15.25 17.069 17.89 25.079-11.44-8.157-27.366-16.496-43.988-23.156-21.232-8.507-43.598-14.273-66.206-17.307 10.842 4.552 21.278 10.131 31.043 16.758 16.599 11.265 31.258 25.557 34.097 35.264-3.134-2.252-16.468-9.395-30.526-14.661-16.886-6.325-34.816-9.943-52.745-10.988 10.504 3.71 20.585 8.84 29.669 15.383 10.887 7.844 20.342 17.717 23.127 25.745-6.203-3.513-12.852-6.306-19.776-8.142-10.177-2.699-20.948-3.332-31.361-2.163 3.671 3.562 10.139 11.175 16.864 24.483a70.737 70.737 0 0 0-20.798-2.38l-2.697-4.322-3.735-5.968-1.786-2.894-1.961-3.249-4.447-7.888-1.553-3.044-1.843-3.931a108.754 108.754 0 0 1-3.511-8.915 100.092 100.092 0 0 1-2.678-9.175 87.79 87.79 0 0 1-1.698-9.128 73.814 73.814 0 0 1-.636-8.838c-.028-2.812.12-5.628.475-8.417.381-2.994 1-5.958 1.815-8.865l1.42-4.463 1.742-4.416a76.924 76.924 0 0 1 4.419-8.646 81.166 81.166 0 0 1 5.54-8.163 81.086 81.086 0 0 1 6.442-7.389 82.125 82.125 0 0 1 8.754-7.689 90.173 90.173 0 0 1 10.119-6.655 102.246 102.246 0 0 1 11.232-5.475 115.804 115.804 0 0 1 12.139-4.252 129.32 129.32 0 0 1 12.768-3.002l6.903-1.083 7.829-.804a144.725 144.725 0 0 1 15.764-.311c5.514.19 11.017.69 16.477 1.486a155.399 155.399 0 0 1 15.666 3.118 159.987 159.987 0 0 1 15.302 4.7 161.895 161.895 0 0 1 19.248 8.425 157.299 157.299 0 0 1 14.55 8.54 147.99 147.99 0 0 1 13.361 9.962 136.184 136.184 0 0 1 11.895 11.235 124.15 124.15 0 0 1 10.192 12.366l4.406 6.586 2.255 3.803a97.844 97.844 0 0 1 3.903 7.649ZM309.999 493.693l-5.439-.333c9.289-2.286 17.036-5.398 24.543-9.065 30.079-14.692 56.314-38.297 75.559-65.516-17.294 13.044-36.876 23.472-57.648 29.997-17.836 5.603-36.549 8.328-42.84 5.256 3.619-1.507 18.877-8.117 33.598-16.213 24.378-13.409 47.282-30.896 62.767-53.645 3.359-4.935 6.368-10.117 9.104-15.423-7.057 6.114-14.546 11.715-22.363 16.869-12.48 8.227-25.796 15.312-39.908 20.187-10.789 3.728-22.043 6.164-30.397 5.003 12.364-6.673 26.871-17.292 40.176-29.276 16.995-15.307 32.03-32.842 44.72-51.796-8.865 7.725-18.474 14.633-28.726 20.476-17.429 9.933-36.72 16.79-46.684 15.06 3.403-1.82 15.692-10.64 26.616-20.937 13.122-12.368 24.273-26.868 33.115-42.5-7.961 7.793-17.01 14.581-26.888 19.85-11.839 6.314-24.869 10.448-33.303 9.409 5.888-4.019 11.326-8.756 16.026-14.161 6.909-7.945 12.225-17.334 15.767-27.197-4.816 1.726-14.501 4.176-29.411 4.345a70.688 70.688 0 0 0 11.305-17.619l5.069-.516 7.003-.721 3.385-.327 3.781-.328 9.04-.515 3.417-.052 4.341.079c3.193.12 6.38.378 9.549.778 3.162.4 6.307.942 9.416 1.641a87.852 87.852 0 0 1 8.942 2.5c2.8.948 5.548 2.049 8.214 3.325a61.858 61.858 0 0 1 7.345 4.137 61.718 61.718 0 0 1 7.157 5.537l3.38 3.242 3.196 3.51a76.859 76.859 0 0 1 5.813 7.779 81.077 81.077 0 0 1 4.885 8.571 80.999 80.999 0 0 1 3.792 9.039 82.026 82.026 0 0 1 3.043 11.247 90.254 90.254 0 0 1 1.513 12.017c.247 4.16.224 8.336-.038 12.495a115.86 115.86 0 0 1-1.534 12.77 129.74 129.74 0 0 1-2.934 12.783l-2.072 6.674-2.729 7.382c-1.96 4.88-4.191 9.65-6.67 14.287a150.165 150.165 0 0 1-8.597 14.134 155.576 155.576 0 0 1-9.705 12.687 161.68 161.68 0 0 1-27.012 25.226 157.31 157.31 0 0 1-14.079 9.295 147.88 147.88 0 0 1-14.831 7.602 136.313 136.313 0 0 1-15.329 5.724 124.077 124.077 0 0 1-15.592 3.697l-7.854 1.052-4.407.347a97.987 97.987 0 0 1-8.587.131ZM51.709 138.738l3.317-4.323c-3.298 8.979-5.05 17.142-6.207 25.416-4.637 33.154.265 68.102 12.071 99.277-1.145-21.632 1.158-43.697 7.363-64.567 5.327-17.92 13.53-34.959 19.596-38.457-.775 3.843-3.826 20.189-5.344 36.921-2.514 27.709-.822 56.475 9.381 82.033 2.213 5.544 4.827 10.937 7.696 16.172-1.123-9.27-1.58-18.61-1.481-27.972.156-14.948 1.728-29.949 5.576-44.375 2.942-11.029 7.215-21.722 12.849-27.999-1.381 13.982-.688 31.947 1.808 49.678 3.189 22.65 9.319 44.919 17.939 66.038-1.448-11.67-1.803-23.498-.915-35.265 1.509-20.004 6.611-39.832 13.617-47.126-.394 3.84.047 18.96 2.476 33.774 2.918 17.794 8.704 35.146 16.72 51.217-2.01-10.957-2.578-22.254-1.423-33.39 1.384-13.346 5.243-26.461 10.82-32.872.04 7.129.927 14.286 2.78 21.205 2.724 10.171 7.536 19.828 13.732 28.278 1.263-4.957 4.646-14.356 12.843-26.813a70.646 70.646 0 0 0 8.287 19.224l-2.407 4.491-3.318 6.21-1.621 2.989-1.842 3.318-4.629 7.783-1.867 2.862-2.492 3.555a108.906 108.906 0 0 1-5.985 7.482 100.413 100.413 0 0 1-6.625 6.889 87.93 87.93 0 0 1-7.072 6.016 74.028 74.028 0 0 1-7.35 4.95 61.885 61.885 0 0 1-7.537 3.777 61.682 61.682 0 0 1-8.592 2.837l-4.577.99-4.698.687c-3.218.363-6.46.516-9.699.47a80.96 80.96 0 0 1-9.837-.742 80.855 80.855 0 0 1-9.615-1.911 81.808 81.808 0 0 1-11.025-3.765 90.11 90.11 0 0 1-10.81-5.465 102.228 102.228 0 0 1-10.338-7.017 115.96 115.96 0 0 1-9.73-8.412 129.446 129.446 0 0 1-8.957-9.581l-4.375-5.449-4.595-6.389a144.852 144.852 0 0 1-8.115-13.519 150.043 150.043 0 0 1-6.911-15.031 155.314 155.314 0 0 1-5.092-15.139 160.04 160.04 0 0 1-3.54-15.612 161.987 161.987 0 0 1-2.272-20.888 157.313 157.313 0 0 1 .166-16.87 147.902 147.902 0 0 1 1.99-16.547c.96-5.372 2.228-10.69 3.825-15.909a124.097 124.097 0 0 1 5.653-14.994l3.52-7.1 2.176-3.848a97.578 97.578 0 0 1 4.693-7.192Z" />
</svg>
